storage/app/icons/phosphoricons/thin/archive-thin.svg

<svg xmlns="http://www.w3.org/2000/svg" fill="currentColor" viewBox="0 0 256 256"><path d="M224 52H32a12 12 0 0 0-12 12v24a12 12 0 0 0 12 12h4v92a12 12 0 0 0 12 12h160a12 12 0 0 0 12-12v-92h4a12 12 0 0 0 12-12V64a12 12 0 0 0-12-12m-12 140a4 4 0 0 1-4 4H48a4 4 0 0 1-4-4v-92h168Zm16-104a4 4 0 0 1-4 4H32a4 4 0 0 1-4-4V64a4 4 0 0 1 4-4h192a4 4 0 0 1 4 4Zm-128 48a4 4 0 0 1 4-4h48a4 4 0 0 1 0 8h-48a4 4 0 0 1-4-4"/></svg>

<svg xmlns="http://www.w3.org/2000/svg" viewBox="0 0 256 256" fill="currentColor"><path d="M224,52H32A12,12,0,0,0,20,64V88a12,12,0,0,0,12,12h4v92a12,12,0,0,0,12,12H208a12,12,0,0,0,12-12V100h4a12,12,0,0,0,12-12V64A12,12,0,0,0,224,52ZM212,192a4,4,0,0,1-4,4H48a4,4,0,0,1-4-4V100H212ZM228,88a4,4,0,0,1-4,4H32a4,4,0,0,1-4-4V64a4,4,0,0,1,4-4H224a4,4,0,0,1,4,4ZM100,136a4,4,0,0,1,4-4h48a4,4,0,0,1,0,8H104A4,4,0,0,1,100,136Z"/></svg>
